X: 4074
T: The FERRY
R: Strathspey.
%R: strathspey
B: James Kerr "Merry Melodies" v.4 p.10 #74
Z: 2016 John Chambers <jc:trillian.mit.edu>
M: C
L: 1/16
K: D
|:\
vd3uA BAGF FA3 AB3 | d3A BAGF Ee3 ef3 |\
d3A BAGF AA3 f3e | dcBA d3F FE3 EA3 :|
|:\
d3e fedc d3AF3A | d3e fedc B4 Be3 |\
d3ef3d e3fd3A | Bcdc BAGF FE3 EF3 :|

%%sep 1 1 500
%%sep 1 1 500

